!!!!SEGMENT: pl-gd--ee-1638--005-016_marenzio-luca--il-primo-libro-de-madrigali-spirituali-a-cinque-voci-fallace-incerta.krn
!!!cenid: 15xx:969
!!!COM: Marenzio, Luca
!!!COM-rismid: pe30003955
!!!CDT: ~1553-1599/08/22
!!!CNT: Italian
!!!GTL: Il Primo libro de madrigali spirituali a cinque voci
!!!OTL: Fallace incerta
!!!OMV: 016
!!!PDT: 1588
!!!AGN:
!!!SMS-siglum: PL-GD
!!!SMS-shelfmark: Ee 1638
!!!SMS-shelfwork: 005-016 G
!!!SMS-variant:
!!!SMS-altvar:
!!!NIFC-rismid: 990039269
!!!URL-scan: https://repozytorium.nifc.pl/islandora/object/pl-gd%3A57883/datastream/PDF/view
!!!ONB-nifc: UWAGA: zbiór na stronach: Canto: s. 666-677, Alto: s. 514-525, Tenore: s. 362-373, Bassus: s. 210-221, Quinto: s. 58-69. Uwaga: utwory podzielone wg tytułów w spisach treści dostępnych na końcu każdej księgi głosowej.
**kern	**text	**kern	**text	**kern	**text	**kern	**text	**kern	**text
*part5	*part5	*part4	*part4	*part3	*part3	*part2	*part2	*part1	*part1
*staff5	*staff5	*staff4	*staff4	*staff3	*staff3	*staff2	*staff2	*staff1	*staff1
*I"BASSO	*	*I"TENORE	*	*I"QVINTO	*	*I"ALTO	*	*I"CANTO	*
*I'B	*	*I'T	*	*I'V	*	*I'A	*	*I'S	*
*ICvox	*	*ICvox	*	*ICvox	*	*ICvox	*	*ICvox	*
*Ibass	*	*Itenor 	*	*Ivox	*	*Ialto	*	*Isoprn	*
*clefC4	*	*clefC3	*	*clefC3	*	*clefC2	*	*clefG2	*
*k[b-]	*	*k[b-]	*	*k[b-]	*	*k[b-]	*	*k[b-]	*
*d:	*	*d:	*	*d:	*	*d:	*	*d:	*
*M2/1	*	*M2/1	*	*M2/1	*	*M2/1	*	*M2/1	*
*met(C)	*	*met(C)	*	*met(C)	*	*met(C)	*	*met(C)	*
=1-	=1-	=1-	=1-	=1-	=1-	=1-	=1-	=1-	=1-
!	!	!LO:TX:b:i:t=FAllace	!	!	!	!	!	!	!
!LO:TX:a:i:t=Seconda P arte	!	!LO:TX:a:i:t=Seconda Parte	!	!LO:TX:a:i:t=Seconda Parte	!	!LO:TX:a:i:t=Seconda Parte	!	!LO:TX:a:i:t=Seconda Parte	!
00r	.	00r	.	2r	.	1f	FAl-	0r	.
.	.	.	.	1f	FAl-	.	.	.	.
.	.	.	.	.	.	1a	-la-	.	.
.	.	.	.	1d\	-la-	.	.	.	.
=2-	=2-	=2-	=2-	=2-	=2-	=2-	=2-	=2-	=2-
.	.	.	.	.	.	2b-\	ce in-	1r	.
.	.	.	.	2c#X/	ce in-	2a\	-cer-	.	.
.	.	.	.	4d\	-cer-	2a\	ta e	2r	.
.	.	.	.	4A/	ta e	.	.	.	.
.	.	.	.	8B-/	mo-	8d/	mo-	1ff\	FAl-
.	.	.	.	8c#/	-men-	8e/	-men-	.	.
.	.	.	.	8d\	-ta-	8f\	-ta-	.	.
.	.	.	.	8e\	-nea	8g\	-nea	.	.
=3-	=3-	=3-	=3-	=3-	=3-	=3-	=3-	=3-	=3-
1F	FAl-	1r	.	1.f	vi-	1a	vi-	.	.
.	.	.	.	.	.	.	.	1dd	-la-
1A	-la-	2r	.	.	.	1a	-ta	.	.
.	.	2a\	E	4e\	-ta	.	.	2cc#X\	ce in-
*	*	*	*	*	*ij	*	*	*	*
.	.	.	.	2f\	e	.	.	.	.
=4-	=4-	=4-	=4-	=4-	=4-	=4-	=4-	=4-	=4-
2B-\	ce in-	8d\	mo-	.	.	2r	.	4.dd\	-cer-
.	.	8e\	-men-	.	.	.	.	.	.
.	.	8f\	-ta-	2d\	mo-	.	.	.	.
.	.	8g\	-nea	.	.	.	.	8ee\	.
2A/	-cer-	1a	vi-	.	.	4r	.	4ff\	.
.	.	.	.	4c#X/	-men-	4e/	e	4ee\	-ta
2d\	ta e	.	.	2d\	-ta-	8f\	mo-	4r	.
.	.	.	.	.	.	8g\	-mẽ(n)-	.	.
.	.	.	.	.	.	8a\	-ta-	4ff\	e
.	.	.	.	.	.	8f\	-nea	.	.
!	!	!	!	!	!	!LO:SIC:v:t=custos a	!	!	!
8G/	mo-	2g\	-ta	2d\	-ne-	2b-\	vi-	8b-/	mo-
8A/	-men-	.	.	.	.	.	.	8ccny\	-men-
8B-\	-ta-	.	.	.	.	.	.	8dd\	-ta-
8c\	-nea	.	.	.	.	.	.	8ee\	-nea
!	!	!	!	!	!	!LO:LB:g=original	!	!	!
=5-	=5-	=5-	=5-	=5-	=5-	=5-	=5-	=5-	=5-
1d	vi-	4r	.	8d\	-a	1a	-ta	1ff	vi-
!	!	!	!	!LO:SIC:v:t=custos f	!	!	!	!	!
.	.	.	.	8e\	.	.	.	.	.
!	!	!	!	!LO:LB:g=original	!	!	!	!	!
.	.	2f\	Fal-	8f\	.	.	.	.	.
.	.	.	.	8g\	.	.	.	.	.
.	.	.	.	2a\	vi-	.	.	.	.
.	.	2d\	-la-	.	.	.	.	.	.
2A/	-ta	.	.	1a	-ta	2r	.	2ee\	-ta
.	.	4c#X/	ce in-	.	.	.	.	.	.
*	*	*	*	*	*	*	*ij	*	*
2r	.	4d\	-cer-	.	.	2a\	e	4r	.
.	.	4A/	ta e	.	.	.	.	4cc\	che
*	*	*	*	*	*Xij	*	*	*	*
=6-	=6-	=6-	=6-	=6-	=6-	=6-	=6-	=6-	=6-
1r	.	8B-/	mo-	1r	.	8d/	mo-	4.dd\	le
.	.	8cny/	-men-	.	.	8e/	-mẽ(n)-	.	.
.	.	8d\	-ta-	.	.	8f\	-ta-	.	.
!	!	!	!	!	!	!	!	!LO:SIC:v:t=custos cc	!
.	.	8B-/	-nea	.	.	8g\	-nea	8dd\	più
!	!	!	!	!	!	!	!	!LO:LB:g=original	!
.	.	2f\	vi-	.	.	2a\	vi-	4cc\	vol-
.	.	.	.	.	.	.	.	4ff\	-te
!	!	!LO:SIC:v:t=custos c	!	!	!	!	!	!	!
4r	.	2c/	-ta	4r	.	4g\	-ta	2ee\	man-
*	*	*	*	*	*	*	*Xij	*	*
4c\	Che	.	.	4e\	Che	4cc\	Che	.	.
!	!	!LO:LB:g=original	!	!	!	!	!	!	!
4.d\	le	2r	.	4.f\	le	4a\	le	2dd\	-chi
.	.	.	.	.	.	4b-\	più	.	.
!LO:SIC:v:t=custos c	!	!	!	!	!	!	!	!	!
8d\	più	.	.	8f\	più	.	.	.	.
!LO:LB:g=original	!	!	!	!	!	!	!	!	!
=7-	=7-	=7-	=7-	=7-	=7-	=7-	=7-	=7-	=7-
4c\	vol-	2r	.	4e\	vol-	4a\	vol-	4r	.
4B-\	-te	.	.	4d\	-te	4g\	-te	4g/	in
2A/	man-	4r	.	4cny/	man-	2f#X\	man-	8a/	mez'-
.	.	.	.	.	.	.	.	8b-/	-al
.	.	4c/	Che	4A/	-chi	.	.	2cc\	cor-
2G/	-chi	4.d\	le	4r	.	1g	-chi	.	.
!	!	!	!	!	!	!	!	!LO:N:acc=#	!
.	.	.	.	4d\	in	.	.	4bn/	-ſo
.	.	8d\	più	.	.	.	.	.	.
4r	.	4c/	vol-	8e\	mez'-	.	.	2r	.
.	.	.	.	8f\	-al	.	.	.	.
4G/	in	4B-/	-te	4g\	cor-	.	.	.	.
=8-	=8-	=8-	=8-	=8-	=8-	=8-	=8-	=8-	=8-
8A/	mez'-	2A/	man-	2c/	-ſo	2r	.	4r	.
8B-\	-al	.	.	.	.	.	.	.	.
2c\	cor-	.	.	.	.	.	.	4cc\	che
.	.	2G/	-chi	2r	.	4r	.	4.dd\	le
!LO:N:acc=#	!	!	!	!	!	!	!	!	!
4Bn\	-ſo	.	.	.	.	4d/	in	.	.
.	.	.	.	.	.	.	.	8dd\	più
1r	.	2r	.	2c/	Che	8e/	mez'-	4cc\	vol-
.	.	.	.	.	.	8fny\	-al	.	.
.	.	.	.	.	.	2g\	cor-	4b-y/	-te
.	.	4r	.	4.d\	le	.	.	2.a/	man-
!	!	!	!	!	!	!LO:SIC:v:t=custos g	!	!	!
.	.	4d\	in	.	.	4f#X\	-ſo	.	.
.	.	.	.	8d\	piu	.	.	.	.
!	!	!	!	!	!	!LO:LB:g=original	!	!	!
=9-	=9-	=9-	=9-	=9-	=9-	=9-	=9-	=9-	=9-
2r	.	8e\	mez'-	4c/	vol-	4r	.	.	.
.	.	8f\	-al	.	.	.	.	.	.
*	*	*	*	*	*	*	*ij	*	*
.	.	4g\	cor-	4B-/	-te	4g\	in	4g/	-chi
!	!	!	!	!LO:SIC:v:t=custos G	!	!	!	!	!
4r	.	2c/	-ſo	2A/	man-	8a\	mez'-	2r	.
.	.	.	.	.	.	8b-\	-al	.	.
4c\	Che	.	.	.	.	2cc\	cor-	.	.
!	!	!	!	!LO:LB:g=original	!	!	!	!	!
4.d\	le	4r	.	2G/	-chi	.	.	2r	.
!	!	!	!	!	!	!LO:N:acc=#	!	!	!
.	.	4G/	in	.	.	4bn\	-ſo	.	.
8d\	piu	.	.	.	.	.	.	.	.
4c\	vol-	8A/	mez'-	2r	.	2r	.	4r	.
.	.	8B-/	-al	.	.	.	.	.	.
4F/	-te	2c/	cor-	.	.	.	.	4cc\	in
*	*	*	*	*	*	*	*Xij	*	*
=10-	=10-	=10-	=10-	=10-	=10-	=10-	=10-	=10-	=10-
2E/	man-	.	.	2r	.	4r	.	8ee\	me-
!	!	!	!	!	!	!	!	!LO:SIC:v:t=custos gg	!
.	.	.	.	.	.	.	.	8ff\	zo al
!	!	!LO:N:acc=#	!	!	!	!	!	!LO:LB:g=original	!
.	.	4Bn/	-ſo	.	.	4g\	Che	2gg\	cor-
2D/	-chi	2r	.	4r	.	4.a\	le	.	.
.	.	.	.	4A/	in	.	.	4ff#X\	-ſo
.	.	.	.	.	.	8a\	piu	.	.
4r	.	4r	.	8B-/	mez'-	4g\	vol-	1r	.
.	.	.	.	8c/	-al	.	.	.	.
*	*	*	*ij	*	*	*	*	*	*
4D/	in	4d\	in	4d\	cor-	4fny\	-te	.	.
8E/	mez'-	8G/	mez'-	2g\	-ſo	2e/	mã(n)-	.	.
!LO:SIC:v:t=custos G	!	!LO:SIC:v:t=custos B-	!	!	!	!	!	!	!
8F/	-al	8A/	-al	.	.	.	.	.	.
!LO:LB:g=original	!	!LO:LB:g=original	!	!	!	!	!	!	!
2G/	cor-	2B-yX/	cor-	.	.	.	.	.	.
=11-	=11-	=11-	=11-	=11-	=11-	=11-	=11-	=11-	=11-
.	.	.	.	1r	.	2d/	-ch'i	4r	.
4F#X/	-ſo	4A/	-ſo	.	.	.	.	4dd\	in
2r	.	2r	.	.	.	8e/	mez'-	8g/	me-
.	.	.	.	.	.	8f\	-al	8a/	zo al
.	.	.	.	.	.	2g\	cor-	2b-/	cor-
1r	.	1r	.	1d	Ri-	.	.	.	.
.	.	.	.	.	.	4f#X\	-ſo	4a/	-ſo
.	.	.	.	.	.	2r	.	2r	.
*	*	*	*Xij	*	*	*	*	*	*
=12-	=12-	=12-	=12-	=12-	=12-	=12-	=12-	=12-	=12-
!	!	!	!	!	!	!	!	!LO:N:acc=#	!
1G	Ri-	1d	Ri-	1d	-pen-	1g	Ri-	1bn	Ri-
1G	-pen-	1d	-pen-	1G	-ſa	1g	-pen-	1b	-pen-
=13-	=13-	=13-	=13-	=13-	=13-	=13-	=13-	=13-	=13-
1C	-ſa	1c	-ſa	1g	Ri-	1e	-ſa	1cc	-ſa
1c	Ri-	1c	Ri-	1g	-pen-	1e	Ri-	1cc	Ri-
=14-	=14-	=14-	=14-	=14-	=14-	=14-	=14-	=14-	=14-
1c	-pen-	1e	-pẽ(n)-	1.c	-ſ'al	1g	-pen-	1cc	-pen-
!	!	!	!	!	!	!LO:SIC:v:t=custos a	!	!	!
1Fny	-s'al	1f	-s'al	.	.	1a	-s'al	1cc	ſa al
.	.	.	.	1A/	ve-	.	.	.	.
!	!	!	!	!	!	!LO:LB:g=original	!	!	!
=15-	=15-	=15-	=15-	=15-	=15-	=15-	=15-	=15-	=15-
2A/	ve-	2e\	ve-	.	.	2a\	ve-	2cc#X\	ve-
2F/	-le-	1d	-le-	2A/	-le-	2a\	-le-	2dd\	-le-
1E	-no-	.	.	1e	-no-	1g#X	-no-	1ee	-no-
.	.	2c/	-no-	.	.	.	.	.	.
=16-	=16-	=16-	=16-	=16-	=16-	=16-	=16-	=16-	=16-
!	!	!LO:N:acc=#	!	!	!	!	!	!	!
2E/	ſo a-	2Bn/	ſo a-	1e	ſo a-	2g#yX\	ſo a-	1ee	ſo a-
1A	-cu-	1c	-cu-	.	.	2a\	-cu-	.	.
.	.	.	.	2c/	-cu-	2e/	-to	2a/	-cu-
2F/	-to	2A/	-to	2c/	-to	2.fny\	ſtra-	2a/	-to
=17-	=17-	=17-	=17-	=17-	=17-	=17-	=17-	=17-	=17-
!	!	!	!	!	!	!	!	!LO:SIC:v:t=custos a	!
1C	ſtra-	1G	ſtra-	1c	ſtra-	.	.	1ccny	ſtra-
.	.	.	.	.	.	8e/	.	.	.
.	.	.	.	.	.	8d/	.	.	.
.	.	.	.	.	.	2e/	.	.	.
!	!	!	!	!	!	!	!	!LO:LB:g=original	!
2F/	-le	1F	-le	2c/	-le	4f\	-le	1a	-le
.	.	.	.	.	.	2c/	ch'er-	.	.
2F/	Ch'er-	.	.	2A/	ch'er-	.	.	.	.
.	.	.	.	.	.	2d/	-ar-	.	.
=18-	=18-	=18-	=18-	=18-	=18-	=18-	=18-	=18-	=18-
!	!	!	!	!LO:SIC:v:t=custos c	!	!	!	!	!
2G/	-ar	0r	.	2B-/	-rar	.	.	0r	.
.	.	.	.	.	.	2e/	-mi	.	.
!	!	!	!	!LO:LB:g=original	!	!	!	!	!
2A/	mi	.	.	2c/	mi	.	.	.	.
.	.	.	.	.	.	2f\	fa	.	.
2B-y\	fa	.	.	2d\	fa	.	.	.	.
.	.	.	.	.	.	2gny\	per	.	.
2c\	per	.	.	2e\	per	.	.	.	.
.	.	.	.	.	.	4.a\	queſt'-	.	.
=19-	=19-	=19-	=19-	=19-	=19-	=19-	=19-	=19-	=19-
4.d\	queſt'-	1r	.	4.f\	queſt'-	.	.	1r	.
.	.	.	.	.	.	8g\	-al	.	.
.	.	.	.	.	.	2f\	peſ-	.	.
!LO:SIC:v:t=custos B-	!	!	!	!	!	!	!	!	!
8c\	-al-	.	.	8e\	-al-	.	.	.	.
!LO:LB:g=original	!	!	!	!	!	!	!	!	!
4B-\	-peſ-	.	.	4d\	-peſ-	.	.	.	.
4c\	-tro	.	.	4c/	-tro	4e/	-tro	.	.
!	!	!	!	!LO:N:acc=#	!	!	!	!	!
2G/	boſ-	2r	.	2Bn/	boſ-	2d/	boſ-	4r	.
.	.	.	.	.	.	.	.	2g/	ch'er-
2C/	-co	2c/	Ch'er-	4c/	-co	2e/	-co	.	.
.	.	.	.	4e\	Ch'er-	.	.	2a/	-rar
=20-	=20-	=20-	=20-	=20-	=20-	=20-	=20-	=20-	=20-
2r	.	2d\	-ar	2f\	-rar	2r	.	.	.
!	!	!	!	!	!	!	!	!LO:N:acc=#	!
.	.	.	.	.	.	.	.	4bn/	mi
2c\	Ch'er-	2A/	mi	4e\	mi	4r	.	2cc\	fa
!	!	!	!	!	!	!LO:SIC:v:t=custos f	!	!	!
.	.	.	.	2f\	fa	4a\	Ch'er-	.	.
!	!	!	!	!	!	!LO:LB:g=original	!	!	!
2d\	-rar	2B-y/	fa	.	.	2f\	-rar	2r	.
.	.	.	.	4d\	per	.	.	.	.
2A/	mi	2c/	per	2a\	queſt'-	4e/	mi	4r	.
*	*	*	*	*	*	*	*	*	*ij
.	.	.	.	.	.	2f\	fa	2cc\	ch'er-
=21-	=21-	=21-	=21-	=21-	=21-	=21-	=21-	=21-	=21-
2F/	fa	4.f\	queſt'-	2a\	-al-	.	.	.	.
.	.	.	.	.	.	4a\	per	2dd\	-rar
!	!	!LO:SIC:v:t=custos d	!	!	!	!	!	!	!
.	.	8e\	-al	.	.	.	.	.	.
!	!	!LO:LB:g=original	!	!	!	!	!	!	!
2G/	per	4d\	peſ-	4.g\	-peſ-	2b-y\	queſt'-	.	.
.	.	4g\	-tro	.	.	.	.	2ee\	mi
.	.	.	.	8f\	-tro	.	.	.	.
4.A/	queſt'-	2c/	boſ-	4e\	boſ-	2a\	-al-	.	.
.	.	.	.	4c/	-co	.	.	2ffny\	fa
8G/	-al	.	.	.	.	.	.	.	.
4F/	peſ-	2d\	-co	4r	.	4a\	-peſ-	.	.
!	!	!	!	!LO:SIC:v:t=custos g	!	!LO:N:acc=#	!	!	!
*	*	*	*	*	*	*	*	*	*Xij
4G/	-tro	.	.	4d\	per	4bn\	-tro	4dd\	per
!	!	!	!	!LO:LB:g=original	!	!	!	!	!
=22-	=22-	=22-	=22-	=22-	=22-	=22-	=22-	=22-	=22-
1C	boſ-	1r	.	4.g\	queſt'-	1cc	boſ-	4.ee\	queſt'-
.	.	.	.	8f\	-al-	.	.	8ff\	-al-
.	.	.	.	4e\	-peſ-	.	.	4gg\	-peſ-
.	.	.	.	4g\	-tro	.	.	4ee\	-tro
1D	-co	2r	.	4.f\	bo-	2a\	-co	2dd\	bo-
.	.	.	.	8g\	.	.	.	.	.
.	.	1d\	Ve-	2a\	.	1f\	Ve-	2dd\	-ſco
=23-	=23-	=23-	=23-	=23-	=23-	=23-	=23-	=23-	=23-
1A	Ve-	.	.	1a	-ſco	.	.	1r	.
.	.	2c/	-di	.	.	2e/	-di	.	.
1F	-di	4f\	Che	1r	.	4a\	Che	0cc	Ve-
.	.	8f\	s'a-	.	.	8a\	s'ap-	.	.
.	.	8g\	-pa-	.	.	8b-y\	-pa-	.	.
.	.	4a\	-re-	.	.	4cc\	-rec-	.	.
.	.	4f\	chia ũ(n)	.	.	4a\	chia vn	.	.
=24-	=24-	=24-	=24-	=24-	=24-	=24-	=24-	=24-	=24-
0r	.	4e\	cru-	0r	.	4g\	cru-	.	.
.	.	4f\	-del	.	.	4a\	-del	.	.
.	.	8c/	ven-	.	.	8e/	ver-	.	.
.	.	8d\	.	.	.	8f\	.	.	.
.	.	8e\	.	.	.	8g\	.	.	.
!	!	!	!	!	!	!LO:SIC:v:t=custos f	!	!	!
.	.	8c\	.	.	.	8e\	.	.	.
!	!	!	!	!	!	!LO:LB:g=original	!	!	!
.	.	8d\	.	.	.	8f\	.	1f	-di
.	.	8c\	.	.	.	8e/	.	.	.
.	.	8B-/	.	.	.	8d/	.	.	.
.	.	8c/	.	.	.	8e\	.	.	.
.	.	8d\	.	.	.	8f\	.	.	.
.	.	8e\	.	.	.	8g\	.	.	.
.	.	8f\	.	.	.	8a\	.	.	.
.	.	8d\	.	.	.	8b-\	.	.	.
=25-	=25-	=25-	=25-	=25-	=25-	=25-	=25-	=25-	=25-
1r	.	4e\	.	1c	Ve-	4cc\	.	1r	.
.	.	2f\	.	.	.	8b-\	.	.	.
.	.	.	.	.	.	8a\	.	.	.
.	.	.	.	.	.	2g\	.	.	.
!	!	!LO:SIC:v:t=custos f	!	!	!	!	!	!	!
.	.	4e\	.	.	.	.	.	.	.
!	!	!LO:LB:g=original	!	!	!	!	!	!LO:SIC:v:t=custos a	!
4F/	che	2f\	-to	1F	-di	1cc	-to	4a/	che
!	!	!	!	!	!	!	!	!LO:LB:g=original	!
8F/	s'ap-	.	.	.	.	.	.	8a/	s'a-
!LO:SIC:v:t=custos A	!	!	!	!	!	!	!	!	!
8G/	-pa-	.	.	.	.	.	.	8b-y/	-pa-
!LO:LB:g=original	!	!	!	!	!	!	!	!	!
4A/	-re-	2r	.	.	.	.	.	4cc\	-re-
4F/	chia ũ(n)	.	.	.	.	.	.	4a/	chia vn
=26-	=26-	=26-	=26-	=26-	=26-	=26-	=26-	=26-	=26-
4E/	cru-	1c	Ve-	0r	.	1r	.	4g/	cru-
4F/	-del	.	.	.	.	.	.	4a/	-del
8C/	ven-	.	.	.	.	.	.	8e/	ven-
8D/	.	.	.	.	.	.	.	8f/	.
8E/	.	.	.	.	.	.	.	8g/	.
8C/	.	.	.	.	.	.	.	8e/	.
8D/	.	1F	-di	.	.	1a	Ve-	8f/	.
8E/	.	.	.	.	.	.	.	8g/	.
8F/	.	.	.	.	.	.	.	8a/	.
8G/	.	.	.	.	.	.	.	8b-/	.
2A/	.	.	.	.	.	.	.	2.cc\	.
=27-	=27-	=27-	=27-	=27-	=27-	=27-	=27-	=27-	=27-
*	*	*	*	*	*ij	*	*	*	*
1G	-to	1r	.	1g	Ve-	1d	-di	.	.
!	!	!	!	!	!	!	!	!LO:N:acc=#	!
.	.	.	.	.	.	.	.	8bn/	.
.	.	.	.	.	.	.	.	8a/	.
.	.	.	.	.	.	.	.	2b/	.
00r	.	4c/	che	1c	-di	4e/	che	1cc	-to
.	.	8c/	s'a-	.	.	8e/	s'ap-	.	.
.	.	8d\	-pa-	.	.	8f\	-pa-	.	.
.	.	4e\	-re-	.	.	4g\	-re-	.	.
.	.	4c/	chia ũ(n)	.	.	4e/	chia ũ(n)	.	.
*	*	*	*	*	*Xij	*	*	*	*
=28-	=28-	=28-	=28-	=28-	=28-	=28-	=28-	=28-	=28-
!	!	!	!	!	!	!	!	!	!
.	.	4e\	cru-	1r	.	4g\	cru-	1cc	Ve-
.	.	4f\	-del	.	.	4a\	-del	.	.
.	.	8c/	ven-	.	.	8e/	ven-	.	.
.	.	8d\	.	.	.	8f\	.	.	.
.	.	8e\	.	.	.	8g\	.	.	.
!	!	!	!	!	!	!LO:SIC:v:t=custos f	!	!	!
.	.	8c\	.	.	.	8e/	.	.	.
!	!	!	!	!	!	!LO:LB:g=original	!	!	!
.	.	8d\	.	1f	Ve-	8f\	.	1f	-di
.	.	8c/	.	.	.	8e\	.	.	.
.	.	8B-/	.	.	.	8d/	.	.	.
.	.	8c/	.	.	.	8e/	.	.	.
.	.	8d\	.	.	.	8f\	.	.	.
.	.	8e\	.	.	.	8g\	.	.	.
.	.	8f\	.	.	.	8a\	.	.	.
.	.	8d\	.	.	.	8b-\	.	.	.
=29-	=29-	=29-	=29-	=29-	=29-	=29-	=29-	=29-	=29-
.	.	4e\	.	1c	-di	4cc\	.	1r	.
.	.	2f\	.	.	.	8b-\	.	.	.
.	.	.	.	.	.	8a\	.	.	.
.	.	.	.	.	.	2g\	.	.	.
.	.	4e\	.	.	.	.	.	.	.
!	!	!LO:SIC:v:t=custos f	!	!	!	!	!	!	!
00r	.	0f	-to	4F/	che	1a	-to	4a/	che
.	.	.	.	8F/	s'a-	.	.	8a/	s'ap-
!	!	!	!	!	!	!	!	!LO:SIC:v:t=custos cc	!
.	.	.	.	8G/	-pa-	.	.	8b-y/	-pa-
!	!	!	!	!	!	!	!	!LO:LB:g=original	!
.	.	.	.	4A/	-re-	.	.	4cc\	-re-
.	.	.	.	4F/	chia ũ(n)	.	.	4a/	chia vn
!	!	!LO:LB:g=original	!	!	!	!	!	!	!
=30-	=30-	=30-	=30-	=30-	=30-	=30-	=30-	=30-	=30-
.	.	.	.	4A/	cru-	4f\	che	4cc\	cru-
!	!	!	!	!LO:SIC:v:t=custos F	!	!	!	!	!
.	.	.	.	4B-y/	-del	8f\	s'a-	4dd\	-del
.	.	.	.	.	.	8g\	-pa-	.	.
!	!	!	!	!LO:LB:g=original	!	!	!	!	!
.	.	.	.	8F/	ven-	4a\	-re-	8a/	ven-
.	.	.	.	8G/	.	.	.	8b-/	.
.	.	.	.	8A/	.	4f\	chia vn	8cc\	.
.	.	.	.	8F/	.	.	.	8a/	.
.	.	4r	.	8G/	.	2d/	cru-	8b-/	.
.	.	.	.	8A/	.	.	.	8cc\	.
.	.	4f\	vn	8B-/	.	.	.	4.dd\	.
.	.	.	.	8c/	.	.	.	.	.
.	.	4B-/	cru-	8d\	.	2f\	-del	.	.
.	.	.	.	8e\	.	.	.	16cc\	.
.	.	.	.	.	.	.	.	16b-\	.
.	.	4d\	-del	2f\	.	.	.	8a/	.
.	.	.	.	.	.	.	.	8b-/	.
=31-	=31-	=31-	=31-	=31-	=31-	=31-	=31-	=31-	=31-
.	.	1c	ven-	.	.	1g	ven-	1cc	.
.	.	.	.	8e\	.	.	.	.	.
.	.	.	.	8d\	.	.	.	.	.
.	.	.	.	2e\	.	.	.	.	.
2r	.	1F	-to	2.f\	-to	1a	-to	1cc	-to
1F/	Che	.	.	.	.	.	.	.	.
.	.	.	.	4g\	.	.	.	.	.
=32-	=32-	=32-	=32-	=32-	=32-	=32-	=32-	=32-	=32-
.	.	1r	.	1a	.	2r	.	2.ff\	Che
2A/	mi-	.	.	.	.	1f	Che	.	.
.	.	.	.	.	.	.	.	4cc\	mi-
2B-\	-nac-	2.f\	Che	1r	.	.	.	2dd\	-nac-
2F/	-cia	.	.	.	.	2a\	mi-	2cc\	-cia
.	.	4c/	mi-	.	.	.	.	.	.
=33-	=33-	=33-	=33-	=33-	=33-	=33-	=33-	=33-	=33-
2r	.	2d\	-nac-	2.a\	Che	2f\	-nac-	2r	.
*	*ij	*	*	*	*	*	*	*	*
2F/	Che	4.A/	cia vn'-	.	.	4c/	cia vn'-	2.ff\	Che
!	!	!	!	!	!	!LO:SIC:v:t=custos cc	!	!	!
.	.	.	.	4f\	mi-	4cc\	-e-	.	.
.	.	8B-/	-e-	.	.	.	.	.	.
!	!	!	!	!	!	!LO:LB:g=original	!	!	!
2A/	mi-	2c/	-ter-	2f\	-nac-	2cc\	-ter-	.	.
.	.	.	.	.	.	.	.	4cc\	mi-
!	!	!	!	!	!	!	!	!LO:SIC:v:t=custos a	!
2B-\	-nac-	2f\	-na	2.d\	cia vn'-	2b-\	-na	2dd\	-nac-
!	!	!	!	!	!	!	!	!LO:LB:g=original	!
=34-	=34-	=34-	=34-	=34-	=34-	=34-	=34-	=34-	=34-
!LO:SIC:v:t=custos B-	!	!	!	!	!	!	!	!	!
0F	cia v-	4r	.	.	.	4r	.	4.a/	cia vn'-
.	.	4a\	e	4c/	-e-	4cc\	e	.	.
.	.	.	.	.	.	.	.	8b-/	-e-
.	.	4a\	ne-	2c/	-ter-	4cc\	ne-	1cc	-ter-
.	.	4a\	-gra	.	.	4cc\	-gra	.	.
.	.	8f\	piog-	2c/	-na	8a\	piog-	.	.
.	.	8g\	.	.	.	8b-\	.	.	.
.	.	8a\	.	.	.	8cc\	.	.	.
.	.	8g\	.	.	.	8b-\	.	.	.
.	.	8f\	.	2r	.	8a\	.	2ff\	-na
.	.	8e\	.	.	.	8g\	.	.	.
.	.	8d\	.	.	.	8f\	.	.	.
!	!	!LO:SIC:v:t=custos B-	!	!	!	!	!	!	!
.	.	8c\	.	.	.	8e\	.	.	.
!LO:LB:g=original	!	!LO:LB:g=original	!	!	!	!	!	!	!
=35-	=35-	=35-	=35-	=35-	=35-	=35-	=35-	=35-	=35-
0B-	-n'e-	8B-/	.	4r	.	8d/	.	4r	.
.	.	8c/	.	.	.	8c/	.	.	.
!	!	!	!	!LO:SIC:v:t=custos d	!	!	!	!	!
.	.	8d\	.	4d\	e	8B-/	.	4ff\	e-
.	.	8e\	.	.	.	8c/	.	.	.
!	!	!	!	!LO:LB:g=original	!	!	!	!	!
.	.	2f\	.	4d\	ne-	2d/	.	4ff\	-ne-
.	.	.	.	4d\	-gra	.	.	4ff\	-gra
.	.	1f	-gia	8B-/	piog-	1d	-gia	8dd\	piog-
.	.	.	.	8c/	.	.	.	8ee\	.
.	.	.	.	8d\	.	.	.	8ff\	.
.	.	.	.	8e\	.	.	.	8ee\	.
.	.	.	.	8f\	.	.	.	8dd\	.
.	.	.	.	8e\	.	.	.	8cc\	.
.	.	.	.	8d\	.	.	.	8b-\	.
.	.	.	.	8c/	.	.	.	8cc\	.
=36-	=36-	=36-	=36-	=36-	=36-	=36-	=36-	=36-	=36-
0G	-ter-	4r	.	8B-/	.	4r	.	1.dd	.
.	.	.	.	8A/	.	.	.	.	.
.	.	4d\	e	8G/	.	4b-\	e	.	.
.	.	.	.	8A/	.	.	.	.	.
.	.	4d\	ne-	8B-/	.	4b-\	ne-	.	.
.	.	.	.	8c/	.	.	.	.	.
.	.	4d\	-gra	4d\	.	4b-\	-gra	.	.
.	.	8B-/	piog-	2d\	-gia	8g\	piog-	.	.
.	.	8c/	.	.	.	8a\	.	.	.
.	.	8d\	.	.	.	8b-\	.	.	.
.	.	8c/	.	.	.	8a\	.	.	.
.	.	8B-/	.	2r	.	8g\	.	2gg\	-gia
.	.	8A/	.	.	.	8f\	.	.	.
.	.	4G/	.	.	.	8e\	.	.	.
!	!	!	!	!	!	!LO:SIC:v:t=custos e	!	!	!
.	.	.	.	.	.	8d/	.	.	.
!	!	!	!	!	!	!LO:PB:g=original	!	!	!
=37-	=37-	=37-	=37-	=37-	=37-	=37-	=37-	=37-	=37-
1C	-na	1G	-gia	4r	.	4.e/	.	4r	.
*	*	*	*	*	*ij	*	*	*	*
.	.	.	.	4e\	e	.	.	4gg\	e
.	.	.	.	.	.	8f\	.	.	.
.	.	.	.	4e\	ne-	2g\	.	4gg\	ne-
.	.	.	.	4e\	-gra	.	.	4gg\	-gra
4r	.	4r	.	8c/	piog-	1g	-gia	8ee\	piog-
.	.	.	.	8d\	.	.	.	8ff\	.
*	*	*	*ij	*	*	*	*	*	*
4c\	e	4e\	e	8e\	.	.	.	8gg\	.
!	!	!	!	!LO:SIC:v:t=custos g	!	!	!	!LO:SIC:v:t=custos ee	!
.	.	.	.	8f\	.	.	.	8ff\	.
!	!	!	!	!LO:LB:g=original	!	!	!	!LO:LB:g=original	!
4c\	ne-	4e\	ne-	4g\	.	.	.	8ee\	.
.	.	.	.	.	.	.	.	8dd\	.
4c\	-gra	4e\	-gra	4c/	-gia	.	.	4cc\	.
*	*	*	*	*	*Xij	*	*	*	*
=38-	=38-	=38-	=38-	=38-	=38-	=38-	=38-	=38-	=38-
8A/	piog-	8c/	piog-	4r	.	4r	.	1cc	-gia
8B-\	.	8d\	.	.	.	.	.	.	.
8c\	.	8e\	.	4c/	e	4e/	e	.	.
8B-\	.	8d\	.	.	.	.	.	.	.
8A/	.	8c/	.	4c/	ne-	4e/	ne-	.	.
8G/	.	8B-/	.	.	.	.	.	.	.
8F/	.	8A/	.	4c/	-gra	4f\	-gra	.	.
!	!	!LO:SIC:v:t=custos F	!	!	!	!	!	!	!
8E/	.	8G/	.	.	.	.	.	.	.
!	!	!LO:LB:g=original	!	!	!	!	!	!	!
2D/	.	2F/	.	8d\	piog-	8f\	piog-	1r	.
.	.	.	.	8e\	.	8g\	.	.	.
.	.	.	.	8f\	.	8a\	.	.	.
.	.	.	.	8e\	.	8g\	.	.	.
2D/	-gia	4A/	-gia	8d\	.	8f\	.	.	.
.	.	.	.	8c/	.	8e/	.	.	.
*	*	*	*Xij	*	*	*	*	*	*
.	.	4d\	e	8B-/	.	8d/	.	.	.
.	.	.	.	8A/	.	8c/	.	.	.
=39-	=39-	=39-	=39-	=39-	=39-	=39-	=39-	=39-	=39-
4r	.	4d\	ne-	2G/	.	2B-/	.	4r	.
4G/	e	4d\	-gra	.	.	.	.	4gg\	e
!	!	!LO:N:acc=#	!	!	!	!	!	!	!
4G/	ne-	8Bn/	piog-	2g\	-gia	4d/	-gia	4gg\	ne-
.	.	8c\	.	.	.	.	.	.	.
*	*	*	*	*	*	*	*ij	*	*
4G/	-gra	8d\	.	.	.	4d/	e	4gg\	-gra
!	!	!LO:N:acc=#	!	!	!	!	!	!	!
.	.	8Bn/	.	.	.	.	.	.	.
4.C/	piog-	8c/	.	4r	.	2g\	ne-	8ee\	piog-
.	.	8d\	.	.	.	.	.	8ff\	.
*	*	*	*	*	*ij	*	*	*	*
.	.	8e\	.	4e\	e	.	.	8gg\	.
!LO:SIC:v:t=custos E	!	!	!	!	!	!	!	!	!
8D/	.	8f\	.	.	.	.	.	8ff\	.
!LO:LB:g=original	!	!	!	!	!	!	!	!	!
4.E/	.	2.g\	.	4e\	ne-	2g\	-gra	8ee\	.
.	.	.	.	.	.	.	.	8dd\	.
.	.	.	.	4e\	-gra	.	.	2cc\	.
8F/	.	.	.	.	.	.	.	.	.
=40-	=40-	=40-	=40-	=40-	=40-	=40-	=40-	=40-	=40-
1G	.	.	.	1d	piog-	1g	piog-	.	.
!	!	!	!	!	!	!	!	!LO:N:acc=#	!
.	.	8f\	.	.	.	.	.	8bn/	.
.	.	8e\	.	.	.	.	.	8a/	.
!	!	!	!	!	!	!	!	!LO:N:acc=#	!
.	.	2d\	.	.	.	.	.	2bn/	.
!LO:N:vis=00	!	!LO:N:vis=00	!	!LO:N:vis=00	!	!LO:N:vis=00	!	!LO:N:vis=00	!
0.C	-gia.	0.e	-gia.	0.c	-gia	0.g	-gia	0.cc	-gia.
*	*Xij	*	*	*	*Xij	*	*Xij	*	*
==	==	==	==	==	==	==	==	==	==
*-	*-	*-	*-	*-	*-	*-	*-	*-	*-
!!!system-decoration: [(s1,s2,s3,s4,s5)]
!!!ENC: Mateusz Solarz
!!!END: 2022-06-29
!!!AIN: 1 alto 1 bass 1 soprn 1 tenor  1 vox
!!!ENC: Jan Barakat
!!!END: 2022-07-16
